!!!!SEGMENT: pl-wtm--r-1226--024_lodwigowski-edward-stefan--kogo-szukalas.krn
!!!cenid: 18xx:1940
!!!COM: Łodwigowski, Edward Stefan
!!!COM-rismid: pe30111147
!!!CDT: 1815/08/14-1895/11/12
!!!CNT: Polish
!!!OTL: Kogo szukałaś
!!!PDT:
!!!AGN:
!!!SMS-siglum: PL-Wtm
!!!SMS-shelfmark: R 1226
!!!SMS-shelfwork: 024 W
!!!SMS-variant:
!!!SMS-altvar:
!!!NIFC-rismid: 1001084018
!!!URL-scan: http://repozytorium.nifc.pl/skany/pl-wtm-nut--r1226-1227
!!!ONB-nifc: UWAGA: No. 72
!!!OMD: Andante
!!!key:
**kern	**fing	**kern	**fing	**dynam
*part1	*part1	*part1	*part1	*part1
*staff2	*staff2	*staff1	*staff1	*
*Iforte	*	*Iforte	*	*
*I"Fortepian	*	*I"Fortepian	*	*
*>[A,B,A,C]	*>[A,B,A,C]	*>[A,B,A,C]	*>[A,B,A,C]	*>[A,B,A,C]
*>A	*>A	*>A	*>A	*>A
*clefF4	*	*clefG2	*	*
*k[]	*	*k[]	*	*
*a:	*	*a:	*	*
*M2/4	*	*M2/4	*	*
*all\right	*	*all\right	*	*
=1	=1	=1	=1	=1
!	!	!LO:TX:a:Bi:t=No. 72	!	!
!	!	!LO:TX:a:i:t=Kogo szukałaś... (Żal Turczynki) J. Komorowskiego.	!	!
!	!	!LO:TX:a:[segno]	!	!
(16AA\LL	5	8r	.	p
16C\	4	.	.	.
16E\	2	(8ee\L	5	.
16A\JJ)	1	.	.	.
(16AA\LL	5	8cc\	3	.
16D\	3	.	.	.
16E\	.	8b\J	2	.
16G#X\JJ)	.	.	.	.
=2	=2	=2	=2	=2
*	*	*	*ela	*
(16AA\LL	.	4a/	1-3	.
*	*	*	*Xela	*
16C\	.	.	.	.
16E\	.	.	.	.
16A\JJ)	.	.	.	.
(16AA\LL	.	4e/)	.	.
16C\	.	.	.	.
16E\	.	.	.	.
16A\JJ)	.	.	.	.
=3	=3	=3	=3	=3
16AA\LL	.	8r	.	.
16C\	.	.	.	.
16E\	.	(8ee\L	.	.
16A\JJ	.	.	.	.
16AA\LL	.	8cc\	.	.
16D\	.	.	.	.
16E\	.	8b\J	.	.
16G#X\JJ	.	.	.	.
=4	=4	=4	=4	=4
16AA\LL	.	4a/	.	.
16C\	.	.	.	.
16E\	.	.	.	.
16A\JJ	.	.	.	.
16AA\LL	.	4e/)	.	.
16C\	.	.	.	.
16E\	.	.	.	.
16A\JJ	.	.	.	.
=5	=5	=5	=5	=5
16AA\LL	.	8r	.	.
16C\	.	.	.	.
16E\	.	(8ee\L	.	.
16A\JJ	.	.	.	.
16AA\LL	.	8cc\	.	.
16C\	.	.	.	.
16E\	.	8a\J)	.	.
16A\JJ	.	.	.	.
!!LO:LB:g=original
=6	=6	=6	=6	=6
16D\LL	.	(4b-X\	.	.
16F\	.	.	.	.
16B-X\	.	.	.	.
16d\JJ	.	.	.	.
16D\LL	.	8.dd\L	.	.
16F\	.	.	.	.
16B-\	.	.	.	.
16d\JJ	.	16b-\Jk)	.	.
=7	=7	=7	=7	=7
16E\LL	.	(2a/	.	.
16A\	.	.	.	.
16c\	.	.	.	.
16e\JJ	.	.	.	.
16d#X\LL	.	.	.	.
16e\	.	.	.	.
16c\	.	.	.	.
16A\JJ	.	.	.	.
=8	=8	=8	=8	=8
16E\LL	.	4g#X/)	.	.
16G#X\	.	.	.	.
16B\	.	.	.	.
16e\JJ	.	.	.	.
16d\LL	.	4r	.	.
16B\	.	.	.	.
16G#\	4	.	.	.
16E\JJ	1	.	.	.
=9	=9	=9	=9	=9
16AA\LL	.	8r	.	.
16C\	.	.	.	.
16E\	.	(8ee\L	.	.
16A\JJ	.	.	.	.
16AA\LL	.	8cc\	.	.
16D\	.	.	.	.
16E\	.	8b\J	.	.
16G#X\JJ	.	.	.	.
=10	=10	=10	=10	=10
16AA\LL	.	4a/	.	.
16C\	.	.	.	.
16E\	.	.	.	.
16A\JJ	.	.	.	.
16AA\LL	.	4e/)	.	.
16C\	.	.	.	.
16E\	.	.	.	.
16A\JJ	.	.	.	.
=11	=11	=11	=11	=11
16AA\LL	.	8r	.	.
16C\	.	.	.	.
*	*	*	*below	*
16E\	.	(8ee'\L	4	<
16A\JJ	.	.	.	.
16BB\LL	.	8ee'\	3	.
16D\	.	.	.	.
16E\	.	8ee'\J)	2	[
16G#X\JJ	.	.	.	.
!!LO:LB:g=original
=12	=12	=12	=12	=12
16C#X\LL	.	(8.ee\L	1	.
16E\	.	.	.	.
16G\	.	.	.	.
16A\JJ	.	16ff\Jk	.	.
16C#\LL	.	4ee\)	.	>
16E\	.	.	.	.
16G\	.	.	.	.
16A\JJ	.	.	.	]]
=13	=13	=13	=13	=13
16D\LL	.	8r	.	.
16F\	.	.	.	.
*	*	*	*above	*
16B-X\	.	(8dd\L	2	.
16d\JJ	.	.	.	.
16D\LL	.	8ff\	.	.
16F\	.	.	.	.
16B-\	.	8dd\J)	.	.
16d\JJ	.	.	.	.
=14	=14	=14	=14	=14
*	*	*	*ela	*
16E\LL	.	(4cc\	1-3	.
*	*	*	*Xela	*
16A\	.	.	.	.
16c\	.	.	.	.
16e\JJ	.	.	.	.
16E\LL	.	8b\L	.	.
16A\	.	.	.	.
16c\	.	8a\J)	.	.
16e\JJ	.	.	.	.
=15	=15	=15	=15	=15
.	.	(>(8qg#X/	.	.
*^	*	*	*	*
4ryy	16E\LL	.	[4ee\)	.	.
.	16B\	.	.	.	.
.	16d\	.	.	.	.
.	16e\JJ	.	.	.	.
4E/	8E\L	.	16ee\LL]	.	.
.	.	.	16dd\	.	.
.	8dJ 8G#X\	.	16cc\	.	.
.	.	.	16b\JJ	.	.
*v	*v	*	*	*	*
!	!	!	!LO:TX:t=[coda]:problem:znak coda na kresce taktowej	!
=16||	=16||	=16||	=16||	=16||
*>B	*>B	*>B	*>B	*>B
*	*^	*	*	*
(8cL 8A\	2	4	8a/)	.	.
8e\J)	.	.	8r	.	.
!	!	!	!LO:TX:a:i:t=ralen	!	!
4f 4d 4G^\	.	.	(8b^/L	.	.
.	.	.	8g/J)	.	.
*	*v	*v	*	*	*
=17	=17	=17	=17	=17
*^	*	*	*	*
*	*2\right	*	*	*	*
16E/LL	2C\	.	8r	.	.
!	!	!	!LO:TX:a:i:t=a tempo.	!	!
16G/	.	.	.	.	.
16E/	.	.	(8cc\L	4	.
16G/JJ	.	.	.	.	.
16E/LL	.	.	8b\	.	.
16G/	.	.	.	.	.
16E/	.	.	8a\J)	.	.
16G/JJ	.	.	.	.	.
!!LO:LB:g=original
=18	=18	=18	=18	=18	=18
16F/LL	2D 2C\	.	(4a/	.	.
16G/	.	.	.	.	.
16F/	.	.	.	.	.
16G/JJ	.	.	.	.	.
16F/LL	.	.	4g/)	.	.
16G/	.	.	.	.	.
16F/	.	.	.	.	.
16G/JJ	.	.	.	.	.
=19	=19	=19	=19	=19	=19
16E/LL	2C\	.	8r	.	.
16G/	.	.	.	.	.
16E/	.	.	(8cc\L	.	.
16G/JJ	.	.	.	.	.
16E/LL	.	.	8b\	.	.
16G/	.	.	.	.	.
16E/	.	.	8a\J)	.	.
16G/JJ	.	.	.	.	.
=20	=20	=20	=20	=20	=20
16F/LL	2D 2C\	.	(4a/	.	.
16G/	.	.	.	.	.
16F/	.	.	.	.	.
16G/JJ	.	.	.	.	.
16F/LL	.	.	4g/)	.	.
16G/	.	.	.	.	.
16F/	.	.	.	.	.
16G/JJ	.	.	.	.	.
=21	=21	=21	=21	=21	=21
16E/LL	2C\	.	8r	.	.
16G/	.	.	.	.	.
16E/	.	.	(8cc\L	3	.
16G/JJ	.	.	.	.	.
16E/LL	.	.	8b\	.	.
16G/	.	.	.	.	.
16E/	.	.	8cc\J)	.	.
16G/JJ	.	.	.	.	.
=22	=22	=22	=22	=22	=22
!	!LO:N:vis=2	!	!	!	!
2F/	16F\LL	.	(4dd\	.	.
.	16d\	.	.	.	.
.	16A\	.	.	.	.
.	16d\JJ	.	.	.	.
.	16A\LL	.	8cc\L	.	.
.	16d\	.	.	.	.
.	16A\	.	8a\J)	.	.
.	16d\JJ	.	.	.	.
=23	=23	=23	=23	=23	=23
4G/	16G\LL	.	(4.g/	3	.
.	16d\	.	.	.	.
.	16B\	.	.	.	.
.	16d\JJ	.	.	.	.
4G/	16G\LL	.	.	.	.
.	16d\	.	.	.	.
.	16B\	.	8f/)	.	.
.	16d\JJ	.	.	.	.
!!LO:LB:g=original
=24	=24	=24	=24	=24	=24
!	!LO:N:vis=2	!	!	!	!
2C/	16C\LL	.	4e/	.	.
.	16G\	.	.	.	.
.	16E\	.	.	.	.
.	16G\JJ	.	.	.	.
.	16E\LL	.	4r	.	.
.	16G\	.	.	.	.
.	16E\	.	.	.	.
.	16G\JJ	.	.	.	.
=25	=25	=25	=25	=25	=25
16E/LL	2C\	.	8r	.	.
16G/	.	.	.	.	.
16E/	.	.	(8cc\L	4	.
16G/JJ	.	.	.	.	.
16E/LL	.	.	8b\	.	.
16G/	.	.	.	.	.
16E/	.	.	8a\J)	.	.
16G/JJ	.	.	.	.	.
=26	=26	=26	=26	=26	=26
16F/LL	2D 2C\	.	(4a/	.	.
16G/	.	.	.	.	.
16F/	.	.	.	.	.
16G/JJ	.	.	.	.	.
16F/LL	.	.	4g/)	.	.
16G/	.	.	.	.	.
16F/	.	.	.	.	.
16G/JJ	.	.	.	.	.
=27	=27	=27	=27	=27	=27
4C/	16C\LL	.	8r	.	.
.	16G\	.	.	.	.
.	16E\	.	(8cc\L	.	.
.	16G\JJ	.	.	.	.
4E/	16E\LL	.	8b\	.	.
.	16c\	.	.	.	.
.	16A\	.	8a\J)	.	.
.	16c\JJ	.	.	.	.
=28	=28	=28	=28	=28	=28
4E/	16E\LL	.	(4a/	3	.
.	16d\	.	.	.	.
.	16B\	.	.	.	.
.	16d\JJ	.	.	.	.
4E/	16E\LL	.	4g#X/)	.	.
.	16d\	.	.	.	.
.	16B\	.	.	.	.
.	16d\JJ	.	.	.	.
=29	=29	=29	=29	=29	=29
*	*	*below	*	*	*
4A/	16A\LL	4	8r	.	.
.	16e\	.	.	.	.
.	16c\	.	(8ee\L	4	.
.	16e\JJ	.	.	.	.
4A/	16A\LL	.	8dd\	.	.
.	16e\	.	.	.	.
.	16c\	.	8ee\J)	.	.
.	16e\JJ	.	.	.	.
!!LO:LB:g=original
=30	=30	=30	=30	=30	=30
4D/	16D\LL	.	(4ff\	.	.
.	16B\	.	.	.	.
.	16F\	.	.	.	.
.	16B\JJ	.	.	.	.
4D/	16D\LL	.	8ee\L	.	.
.	16B\	.	.	.	.
.	16F\	.	8dd\J)	.	.
.	16B'\JJ	.	.	.	.
*v	*v	*	*	*	*
=31	=31	=31	=31	=31
*	*above	*2\right	*	*
!LO:TX:b:t=od początku aż do znaku [coda]\npotem następuie zakończenie	!	!	!	!
16E\LL	5	(2cc\	.	.
16c\	2	.	.	.
16A\	3	.	.	.
16c\JJ	2	.	.	.
16e\LL	1	.	.	.
16c\	.	.	.	.
16A\	.	.	.	.
!	!	!LO:TX:b:i:t=ralentan&colon;	!	!
16c\JJ	.	.	.	.
=32	=32	=32	=32	=32
16E\LL	.	4b\)	.	.
16B\	.	.	.	.
16G#X\	.	.	.	.
16B\JJ	.	.	.	.
16e\LL	.	4r	.	.
16B\	.	.	.	.
!	!	!LO:TX:b:t=D.C&colon;	!	!
16G#\	3	.	.	.
16E\JJ	1	.	.	.
!	!	!	!LO:TX:t=[segno]:problem:znak segno na kresce taktowej	!
=33||	=33||	=33||	=33||	=33||
*>C	*>C	*>C	*>C	*>C
*M2/4	*	*M2/4	*	*
*^	*	*	*	*
!	!	!	!LO:TX:a:i:t=Zakończenie	!	!
(4c/	[2A\	.	8a|/L	.	.
.	.	.	([8e^/J	.	.
4d 4B/	.	.	8e/L]	.	.
.	.	.	16f#X/L	.	.
.	.	.	16g#X/JJ	.	.
=34	=34	=34	=34	=34	=34
!LO:TX:a:i:t=ralentando-:dur=3h:ext=cd	!	!	!	!	!
4e 4c/	2A_\	.	8a|/)	.	.
.	.	.	(4ee^\	.	.
4d 4B/	.	.	.	.	.
.	.	.	16ff#X\LL	.	.
.	.	.	16gg#X\JJ	.	.
=35	=35	=35	=35	=35	=35
8c/)	8A\]	.	8aa'\)	.	.
8r	8ryy	.	8r	.	.
8e 8A'\	4ryy	.	8ccc 8ee'\	.	.
8r	.	.	8r	.	.
*v	*v	*	*	*	*
=36	=36	=36	=36	=36
2e 2A;\	.	2aa 2cc;\	.	.
==	==	==	==	==
*-	*-	*-	*-	*-
!!!system-decoration: {p1}
!!!RDF**kern: > = above
!!!RDF**kern: < = below
!!!RDF**kern: | = vertical stroke
!!!AIN: 1 forte
!!!ENC: Andrzej Kubiczek
!!!END: 2021-05-02
!!!ENC: Andrzej Gręziak
!!!END: 2021-04-19
